X:1
T:Title
%%score ( 1 2 3 ) { ( 4 6 ) | ( 5 7 ) }
L:1/8
Q:1/4=88
M:6/8
K:G
V:1 treble nm="Drawbar Organ, Soprano"
V:2 treble 
V:3 treble 
V:4 bass nm="Church Organ, On with the Cross"
V:6 bass 
V:5 bass 
V:7 bass 
V:1
 BAG FA[DG] | G3 .F3 | cBA [=F^G][^FA]D | [DB]6 | dcB _B=B[=Fd] | [Ed]3 .[Ec]3 | %6
w: By~Edmund~Simon~Lorenz * * * * *||||||
 [DB][DA][DG] [FA]2 [CDF] | [B,DG]6 | [FA][=F^G][^FB] [FA]2 [Ad] | [Gd]3 .[G^c]3 | %10
w: ||||
 [Ge][G^c][GB] [Gc]2 [GB] | [FA]6 | [FA][=F^G][^FB] [FA]2 [Ad] | [Bd]3 .[GB]3 | %14
w: ||||
 [FA][A^c][GB] [FA]2 [Ge] | [Fd]6 |[M:12/8] .B6 z6 | .F3 z3 c6 | c3 .c3 .G6 | z6 .[DGB]3 z3 | %20
w: ||||||
 [Gce][Gce][Gce] [Gce]2 [Gce] d-[DGd-][DGd] D2 D | z6 B6 | z6 .[GB]3 z3 | z6 .G6 | z12 |] %25
w: |||||
V:2
 B,6 | C6 | F3 z3 | x6 | G6 | x6 | x6 | x6 | x6 | x6 | x6 | x6 | x6 | x6 | x6 | x6 | %16
[M:12/8] [B,D][B,D][B,D] z A[B,DG] F-[B,DF-][B,DF-] F/ z/ G[B,DE] | %17
 [B,C][CD][CDA] [CDFA]2 [DGB] [DF][DF][DF] .[DF]3 | %18
 [DF][DF][DF] [DF]-[DFB][DFA] [DE][DE][DE] [DE][DFA]D | %19
 [B,DG][B,DG][DGB] [DGB]2 [DAc] d-[DGBd-][DGBd-] [DGBd]3 | z6 .[DG]3 G3 | %21
 [EAc][EAc][EAc] [EAc]2 [EAc] [^DF][DF][DF] [DF]2 [DA] | %22
 [B,EG][B,^DF][B,EG] [CFA][B,EG][=DFA] D2- [D=FGd] [EGd]2 [EAc] | [DGB]3 [CFA]3 [B,D]3 [B,D]3- | %24
 [B,D]3 z3 z6 |] %25
V:3
 x6 | x6 | x6 | x6 | x6 | x6 | x6 | x6 | x6 | x6 | x6 | x6 | x6 | x6 | x6 | x6 | %16
[M:12/8] z3 .[B,D]3 .[B,D]3 .[B,D]3 | x12 | x12 | x12 | x12 | x12 | x12 | x12 | x12 |] %25
V:4
 D,3- D,2 G, | D,6 | EDC B,CF, | G,B,,D, .G,3 | B,[K:treble]ED ^CDB, | G,6 | G,CB, C2 A, | %7
 G,D,B,, .G,,3 | D,,3 D,2 F, | E,3 .A,,3 | A,3 A,,3 | D,F,A, .D3 | D,,3 D,2 F, | G,3 .G,,3 | %14
 A,,3 A,3 | D,A,,F,, .D,,3 |[M:12/8] G,G,G, G,2 G, G,G,G, G,2 G, | z6 z3 .D,3 | %18
 D,D,D, D,2 D, D,D,D, D,2 D, | D,G,G, G,2 G, G,G,G, .G,3 | C6 B,6 | A,6 B,6 | %22
 E,3 D,3 G,2 B,, C,2 A,, | D,D,D, D,D,D, G,D,B,, G,,3- | G,,3 z3 z6 |] %25
V:5
 G,,3- G,,2 B,, | A,,6 | D,6 | .G,,3 z3 | G,6 | C,3 .A,,3 | D,3 D,,3 | z6 | z6 | z6 | z6 | z6 | %12
 z6 | z6 | z6 | z6 |[M:12/8] G,,12 | A,,3 D,,3 .A,,6 | D,,6- D,,2- D,,/ z/ D,,3 | %19
 z D,D, D,2 D, D,D,D, .D,3 | C,6 B,,6 | A,,6 B,,6 | E,,3 D,,3 G,,2 B,,, C,,2 A,,, | %23
 .D,,3 .D,,3 .G,,3 G,,,3- | G,,,3 z3 z6 |] %25
V:6
 x6 | x6 | x6 | x6 | x[K:treble] x5 | x6 | x6 | x6 | x6 | x6 | x6 | x6 | x6 | x6 | x6 | x6 | %16
[M:12/8] x12 | D,D,D, D,2 D, D,D,D, z F,,E,, | x12 | x12 | x12 | x12 | x12 | x12 | x12 |] %25
V:7
 x6 | x6 | x6 | x6 | x6 | x6 | x6 | x6 | x6 | x6 | x6 | x6 | x6 | x6 | x6 | x6 |[M:12/8] x12 | %17
 x12 | x12 | G,,12 | x12 | x12 | x12 | x12 | x12 |] %25

